static/images/flags/flag_pt.svg

<svg width="20" height="20" viewBox="0 0 20 20" fill="none" xmlns="http://www.w3.org/2000/svg">
<g clip-path="url(#clip0_2001_279)">
<path d="M0 20H6.52344L8.00391 9.83203L6.52344 0H0V20Z" fill="#6DA544"/>
<path d="M20 0H6.52344V20H20V0Z" fill="#D80027"/>
<path d="M6.52344 13.4766C8.44349 13.4766 10 11.9201 10 10C10 8.07995 8.44349 6.52344 6.52344 6.52344C4.60338 6.52344 3.04688 8.07995 3.04688 10C3.04688 11.9201 4.60338 13.4766 6.52344 13.4766Z" fill="#FFDA44"/>
<path d="M4.56641 8.26172V10.4297C4.56641 10.9482 4.77239 11.4455 5.13904 11.8121C5.50568 12.1788 6.00297 12.3848 6.52148 12.3848C7.04 12.3848 7.53729 12.1788 7.90393 11.8121C8.27058 11.4455 8.47656 10.9482 8.47656 10.4297V8.25781H4.57031L4.56641 8.26172Z" fill="#D80027"/>
<path d="M6.52344 11.0859C6.16406 11.0859 5.87109 10.793 5.87109 10.4336V9.57031H7.17578V10.4297C7.17578 10.7891 6.88281 11.082 6.52344 11.082V11.0859Z" fill="#EEEEEE"/>
</g>
<defs>
<clipPath id="clip0_2001_279">
<rect width="20" height="20" rx="10" fill="white"/>
</clipPath>
</defs>
</svg>

<svg xmlns="http://www.w3.org/2000/svg" width="20" height="20" fill="none" xmlns:v="https://vecta.io/nano"><g clip-path="url(#A)"><path d="M0 20h6.523l1.48-10.168L6.523 0H0v20z" fill="#6da544"/><path d="M20 0H6.523v20H20V0z" fill="#d80027"/><path d="M6.523 13.477C8.443 13.477 10 11.92 10 10S8.443 6.523 6.523 6.523 3.047 8.08 3.047 10s1.556 3.477 3.477 3.477z" fill="#ffda44"/><path d="M4.566 8.262v2.168c0 .518.206 1.016.573 1.382s.864.573 1.382.573 1.016-.206 1.382-.573.573-.864.573-1.382V8.258H4.57l-.004.004z" fill="#d80027"/><path d="M6.523 11.086c-.359 0-.652-.293-.652-.652V9.57h1.305v.859c0 .359-.293.652-.652.652v.004z" fill="#eee"/></g><defs><clipPath id="A"><rect width="20" height="20" rx="10" fill="#fff"/></clipPath></defs></svg>
